X: 28593
T: Murroe, The
R: polka
M: 2/4
K: Gmajor
|:Bd G>A|Bd GB|AB/A/ FA|Ge ed|
Bd G>A|Bd GB|AB/A/ FA|G2 G>A:|
|:Bd ef|g2 ga|f/e/d ef|ed BA|
B/c/d ef|g2 ga|f/e/d ef|e2 d2:|

